X: 22
T: the North Shore
O: Trad
N: Published in London in 1742 as "My Love's bonny when she smiles on me".
B: Flowers of Scottish Melody, J. Murdoch Henderson, 1935.
Z: John Chambers <jc@trillian.mit.edu>
M: 4/4
L: 1/8
K: D
|: (3ABc \
| "D"~d2dA BAFD | "A7"CDEF G2AG | "D"FAdc "G"Bdgf | "A7"edcB Agfe |
| "D"~d2dA BAFD | "A7"CDEF G2AG | "D"FAdA "A7"BGEC | "D"D2D2 D2 :|
|: AB \
| "A7"cdef gecA | "D"defg a2fa | "G"g2eg "D"f2df | "A7"edcB Agfe |
| "D"~d2dA BAFD | "A7"CDEF G2AG | "D"FAdA "A7"BGEC | "D"D2D2 D2 :|
%%sep 2 1 500
